X:19005
T:Saucy Little Bird on Nelly's Hat, The
R:Hornpipe
C:Trad. Music Hall Song
S:Scan Tester
O:England
M:4/4
L:1/8
Q:1/4=120
K:G
(3DEF|"G"G2G2 G3/2B/2 A3/2G/2|"D"(3FGA d2"G"d7/2c/2|B3/2d/2 B3/2G/2 "D"A3/2c/2 A3/2F/2|"G"G3/2A/2 (3BAG D2 (3DEF|
"G"G2G2 G3/2B/2 A3/2G/2|"D"(3FGA d2"G"d7/2c/2|"G"B3/2d/2 B3/2G/2 "D"A3/2c/2 A3/2F/2|"G"G2G2 G2:|
|:B3/2c/2|"G".d2.d2 d2e2|d2c3/2B/2 "Am"c2A3/2B/2|c3/2B/2 A3/2B/2 "C"c2d2|"Am"c2B3/2A/2 "G"B2 (3DEF|
"G"G2G2 G3/2B/2 A3/2G/2|"D"(3FGA d2"G"d7/2c/2|B3/2d/2 B3/2G/2 "D"A3/2c/2 A3/2F/2|"G"G2G2 G2:|

